X:1
T:St. Nicholas (Hoyte), 75.75
T:St. Nicholas (Hoyte), 75.75
T:William Stevenson Hoyte, 1875
T:Public Domain Courtesy of the Cyber Hymnal™
C:William Stevenson Hoyte, 1875
Z:Public Domain
Z:Courtesy of the Cyber Hymnal™
%%score ( 1 2 ) ( 3 4 )
L:1/8
Q:1/4=115
M:4/4
K:E
V:1 treble 
V:2 treble 
V:3 bass 
V:4 bass 
V:1
 [EB]2 [DB]2 [Ee]2 [Ed]2 | [Ed]2 c2 [GB]4 | G2 [FB]2 [Ec]2 [Ec]2 | [DB]8 | [Ee]3 [EB] [DA]2 [EG]2 | %5
 [EG]2 [DF]2 [DG]4 | [EG]2 [Ec]2 [EA]2 [DF]2 | E8 |] %8
V:2
 x8 | x2 (EF) x4 | G2 x6 | x8 | x8 | x8 | x8 | E8 |] %8
V:3
 [E,G,]2 [F,A,]2 [G,B,]2 [G,^B,]2 | [A,C]2 (CD) [E,E]4 | [E,B,]2 [D,B,]2 [C,G,]2 [F,^A,]2 | %3
 [B,,B,]8 | [G,B,]3 [G,B,] [F,B,]2 [E,B,]2 | [A,C]2 [A,C]2 [G,^B,]4 | %6
 [C,C]2 [B,,C]2 [F,,C]2 (CA,) | [E,G,]8 |] %8
V:4
 x8 | x2 A,2 x4 | x8 | x8 | x8 | x8 | x6 B,,2 | x8 |] %8

